icons/Business/slideshow-4-line.svg

<svg viewBox="0 0 24 24" xmlns="http://www.w3.org/2000/svg"><path d="M8.17071 3C8.58254 1.83481 9.69378 1 11 1H13C14.3062 1 15.4175 1.83481 15.8293 3H21C21.5523 3 22 3.44772 22 4V20C22 20.5523 21.5523 21 21 21H3C2.44772 21 2 20.5523 2 20V4C2 3.44772 2.44772 3 3 3H8.17071ZM4 5V19H20V5H15.8293C15.4175 6.16519 14.3062 7 13 7H11C9.69378 7 8.58254 6.16519 8.17071 5H4ZM11 3C10.4477 3 10 3.44772 10 4C10 4.55228 10.4477 5 11 5H13C13.5523 5 14 4.55228 14 4C14 3.44772 13.5523 3 13 3H11ZM10 9L15 12L10 15V9Z"/></svg>

<svg xmlns="http://www.w3.org/2000/svg" viewBox="0 0 24 24">
    <g>
        <path fill="none" d="M0 0h24v24H0z"/>
        <path d="M8.17 3A3.001 3.001 0 0 1 11 1h2c1.306 0 2.417.835 2.83 2H21a1 1 0 0 1 1 1v16a1 1 0 0 1-1 1H3a1 1 0 0 1-1-1V4a1 1 0 0 1 1-1h5.17zM4 5v14h16V5h-4.17A3.001 3.001 0 0 1 13 7h-2a3.001 3.001 0 0 1-2.83-2H4zm7-2a1 1 0 0 0 0 2h2a1 1 0 0 0 0-2h-2zm-1 6l5 3-5 3V9z"/>
    </g>
</svg>
